X:3204
T:College Hornpipe. JMT.053
M:C
L:1/8
S:J.Moore,Tyneside,1841.(39b)
R:Hornpipe
O:England
A:Northumbria
Z:vmp.Chris Partington
K:D
dc|d2D2D2AG|FAd2d2(3fed|e2E2E2ed|"*"cea4ga|
bagf agfe|!g-fge dcBA|Bdce dfeg|f2d2d2:|
|:AG|FAdA FAdA|B2G2G2BA|!GBec GBed|c2A2A2dc|
d2b2-bagf|g-fge dcBA|Bdce dfeg|f2d2d2:|]
%MS has crotchets here,and semi quavers at the bar end,but they don't ad
%d up.


